X:515
T: Frost is All Over
M: 6/8
L: 1/8
R: Jig
K: D
A|def edB|AFD E2D|FAA AFA|Bee edB|
def edB|AFD E2D|FAA AFA|Bdd d2 :|
g|fdf afd|gfg bag|fdf afd|gfg e2g|
fdf afd|gfg bag|fga efg|fdd d2 :|
